X:12026
T:Non my Ricordo. GS.096
M:6/8
L:1/8
Q:120
S:George Spencer m/s, Leeds,1831
R:Jig
O:England
A:Leeds
H:1831
Z:vmp.Cherri Graebe
K:G major
GAG B2d | GAG d2 e | dBG GFG | ABG FED | GAG B2 d |! GAG B2 e | dgf fed
| ed^c "cr"d3 :||:
ded dbd | cdc cac |! BcB BgB | A2G FED | G2 A B2 c | def g2 e | edB dcA
| A3 "cr"G3 :||


